X:1
T:Title
%%score { 1 | ( 2 3 ) }
L:1/8
Q:1/4=84
M:2/4
K:Bb
V:1 treble nm="Grand Piano"
V:2 bass 
V:3 bass 
V:1
 [B,D]>E [DF][DB] | [DF]>B df | [Ge][Fd] [Fd][Ec] | [Fd][Ec] [FA][EG] | [B,D]>E [DF][DB] | %5
w: C.~E.~Koch * * *|||||
 [DF]>B df | [Ge][Fd] [Fd][Ec] |[M:5/8] [EA][A,EF] [DB]3 |[M:2/4] c>d e[FA] | [FB]>[Fc] [Fd]F | %10
w: |||||
 A>B cF | [FB]c d2 | c>d e[FA] | [FB]>[Fc] [Fd][DF] | %14
w: ||||
 [FB]>[FA] [EG][Ge][Q:1/4=81][Q:1/4=79][Q:1/4=76][Q:1/4=74][Q:1/4=71][Q:1/4=68][Q:1/4=66] | %15
w: |
[M:5/8] Ac [DB]3 |] %16
w: |
V:2
 .B,,>C B,F, | .B,,>[K:treble]D [B,F][K:bass][F,D] | F,,F, A,F, | F,,F, A,F, | .B,,>C B,F, | %5
 .B,,>[K:treble]D [B,F][K:bass][F,D] | F,,F, A,F, |[M:5/8] F,,F, [B,,F,]3 | %8
[M:2/4] [F,A,F]>[F,B,F] [F,CF][E,C] | [D,B,]>[C,A,] [B,,B,][D,B,] | [F,CE]>[F,B,D] [F,A,E][E,C] | %11
 [D,B,][K:treble][F,A,F] [B,F]2 | [F,A,F]>[F,B,F] [F,CF][K:bass][E,C] | %13
 [D,B,]>[C,A,] [B,,B,][B,,B,] | [D,B,]>[D,B,] [E,B,][E,B,] |[M:5/8] [F,F][F,A,E] [B,,B,]3 |] %16
V:3
 z F, z2 | z F,[K:treble] z2[K:bass] | x4 | x4 | z F, z2 | z F,[K:treble] z2[K:bass] | x4 | %7
[M:5/8] x5 |[M:2/4] x4 | x4 | x4 | x[K:treble] x3 | x3[K:bass] x | x4 | x4 |[M:5/8] x5 |] %16

